;FLAVOR:Marlin
;TIME:12965
;Filament used: 11.495m
;Layer height: 0.2
;MINX:52.735
;MINY:56.819
;MINZ:0.28
;MAXX:167.257
;MAXY:163.977
;MAXZ:6.08
;Generated with Cura_SteamEngine 5.4.0
M82 ;absolute extrusion mode
; Ender 3 S1 Pro Start G-code
; M413 S0 ; Disable power loss recovery
G92 E0 ; Reset Extruder

; Prep surfaces before auto home for better accuracy
M140 S60
M104 S210.0

G28 O ; Home all untrusted axes
G1 Z10.0 F3000 ; Move Z Axis up little to prevent scratching of Heat Bed
G1 X0 Y0

M190 S60
M109 S210.0

G1 X0.1 Y20 Z0.3 F5000.0 ; Move to start position
G1 X0.1 Y200.0 Z0.3 F1500.0 E15 ; Draw the first line
G1 X0.4 Y200.0 Z0.3 F5000.0 ; Move to side a little
G1 X0.4 Y20 Z0.3 F1500.0 E30 ; Draw the second line
G92 E0 ; Reset Extruder
G1 Z2.0 F3000 ; Move Z Axis up little to prevent scratching of Heat Bed
G1 X5 Y20 Z0.3 F5000.0 ; Move over to prevent blob squish

G92 E0
G92 E0
G1 F2400 E-0.8
;LAYER_COUNT:30
;LAYER:0
M107
M204 S2000
;MESH:Back.stl
G0 F7500 X66.003 Y84.936 Z0.28
M204 S500
;TYPE:WALL-INNER
G1 F2400 E0
G1 F1500 X65.43 Y85.166 E0.02875
G1 X64.974 Y85.274 E0.05057
G1 X64.374 Y85.332 E0.07864
G1 X63.855 Y85.29 E0.10289
G1 X63.256 Y85.153 E0.1315
G1 X62.739 Y84.933 E0.15766
G1 X62.258 Y84.641 E0.18386
G1 X61.84 Y84.285 E0.20943
G1 X61.463 Y83.849 E0.23627
G1 X61.164 Y83.361 E0.26292
G1 X60.944 Y82.804 E0.2908
G1 X60.823 Y82.309 E0.31453
G1 X60.765 Y81.739 E0.34121
G1 X60.816 Y81.216 E0.36568
G1 X60.941 Y80.674 E0.39158
G1 X61.151 Y80.149 E0.41791
G1 X61.463 Y79.626 E0.44626
G1 X61.829 Y79.197 E0.47252
G1 X62.257 Y78.831 E0.49875
G1 X62.7 Y78.561 E0.5229
G1 X63.261 Y78.32 E0.55133
G1 X63.809 Y78.191 E0.57755
G1 X64.364 Y78.143 E0.60349
G1 X64.941 Y78.193 E0.63046
G1 X65.477 Y78.321 E0.65612
G1 X66 Y78.538 E0.68248
G1 X66.48 Y78.83 E0.70864
G1 X66.913 Y79.204 E0.73529
G1 X67.279 Y79.628 E0.76137
G1 X67.58 Y80.125 E0.78842
G1 X67.781 Y80.614 E0.81304
G1 X67.911 Y81.156 E0.839
G1 X67.961 Y81.715 E0.86513
G1 X67.914 Y82.313 E0.89306
G1 X67.785 Y82.844 E0.9185
G1 X67.573 Y83.356 E0.94431
G1 X67.278 Y83.841 E0.97074
G1 X66.907 Y84.277 E0.9974
G1 X66.485 Y84.641 E1.02335
G1 X66.003 Y84.936 E1.04966
M204 S2000
G1 F2400 E0.24966
G0 F7500 X65.684 Y85.177
G0 X64.957 Y88.011
G0 X65.476 Y95.155
M204 S500
G1 F2400 E1.04966
G1 F1500 X64.939 Y95.281 E1.07535
G1 X64.366 Y95.332 E1.10213
G1 X63.809 Y95.286 E1.12816
G1 X63.253 Y95.152 E1.15479
G1 X62.739 Y94.933 E1.18081
G1 X62.258 Y94.641 E1.20701
G1 X61.849 Y94.293 E1.23201
G1 X61.463 Y93.85 E1.25937
G1 X61.164 Y93.36 E1.2861
G1 X60.944 Y92.804 E1.31394
G1 X60.823 Y92.309 E1.33767
G1 X60.765 Y91.739 E1.36435
G1 X60.816 Y91.216 E1.38882
G1 X60.941 Y90.674 E1.41472
G1 X61.151 Y90.149 E1.44105
G1 X61.463 Y89.626 E1.46941
G1 X61.813 Y89.216 E1.49451
G1 X62.255 Y88.835 E1.52168
G1 X62.782 Y88.519 E1.55029
G1 X63.217 Y88.338 E1.57223
G1 X63.807 Y88.189 E1.60057
G1 X64.37 Y88.143 E1.62687
G1 X64.977 Y88.201 E1.65526
G1 X65.52 Y88.338 E1.68134
G1 X66.001 Y88.538 E1.7056
G1 X66.481 Y88.833 E1.73183
G1 X66.915 Y89.203 E1.75839
G1 X67.279 Y89.631 E1.78455
G1 X67.564 Y90.093 E1.80983
G1 X67.786 Y90.629 E1.83684
G1 X67.914 Y91.171 E1.86277
G1 X67.962 Y91.733 E1.88904
G1 X67.919 Y92.298 E1.91542
G1 X67.783 Y92.85 E1.94189
G1 X67.57 Y93.362 E1.96771
G1 X67.275 Y93.845 E1.99407
G1 X66.909 Y94.276 E2.0204
G1 X66.487 Y94.642 E2.04641
G1 X66.003 Y94.936 E2.07278
G1 X65.476 Y95.155 E2.09935
M204 S2000
G1 F2400 E1.29935
G0 F7500 X65.502 Y95.251
G0 X64.97 Y95.459
G0 X64.967 Y97.857
G0 X65.726 Y105.322
M204 S500
G1 F2400 E2.09935
G1 F1500 X65.445 Y105.434 E2.11344
G1 X63.3 Y105.438 E2.21332
G1 X63.074 Y105.36 E2.22445
G1 X62.927 Y105.243 E2.2332
G1 X62.771 Y104.914 E2.25015
G1 X62.771 Y98.559 E2.54607
G1 X62.908 Y98.255 E2.5616
G1 X63.157 Y98.076 E2.57587
G1 X63.371 Y98.037 E2.586
G1 X65.462 Y98.038 E2.68337
G1 X65.689 Y98.128 E2.69474
G1 X65.836 Y98.257 E2.70385
G1 X65.966 Y98.555 E2.71899
G1 X65.972 Y104.907 E3.01476
G1 X65.879 Y105.159 E3.02727
G1 X65.726 Y105.322 E3.03768
M204 S2000
G1 F2400 E2.23768
G0 F7500 X66.072 Y104.744
G0 X75.426 Y104.831
G0 X82.786 Y106.268
M204 S500
G1 F2400 E3.03768
G1 F1500 X82.528 Y106.452 E3.05243
G1 X82.404 Y106.483 E3.05839
G1 X76.18 Y106.487 E3.3482
G1 X75.985 Y106.441 E3.35753
G1 X75.779 Y106.296 E3.36926
G1 X75.685 Y106.161 E3.37692
G1 X75.62 Y105.888 E3.38999
G1 X75.622 Y97.83 E3.7652
G1 X75.69 Y97.604 E3.77619
G1 X75.924 Y97.365 E3.79177
G1 X76.142 Y97.292 E3.80247
G1 X82.389 Y97.291 E4.09336
G1 X82.655 Y97.389 E4.10656
G1 X82.824 Y97.561 E4.11779
G1 X82.916 Y97.812 E4.13023
G1 X82.917 Y105.957 E4.5095
G1 X82.786 Y106.268 E4.52521
M204 S2000
G1 F2400 E3.72521
G0 F7500 X82.82 Y106.268
G0 X76.169 Y106.668
G0 X67.622 Y116.733
G0 X67.291 Y127.19
M204 S500
G1 F2400 E4.52521
G1 F1500 X67.046 Y127.354 E4.53894
G1 X66.885 Y127.387 E4.54659
G1 X61.773 Y127.386 E4.78463
G1 X61.613 Y127.345 E4.79232
G1 X61.441 Y127.236 E4.8018
G1 X61.3 Y127.045 E4.81286
G1 X61.244 Y126.869 E4.82146
G1 X61.244 Y116.69 E5.29544
G1 X61.362 Y116.431 E5.30869
G1 X61.524 Y116.282 E5.31894
G1 X61.738 Y116.189 E5.3298
G1 X66.927 Y116.195 E5.57142
G1 X67.127 Y116.26 E5.58122
G1 X67.279 Y116.377 E5.59015
G1 X67.442 Y116.659 E5.60531
G1 X67.445 Y126.858 E6.08022
G1 X67.291 Y127.19 E6.09726
M204 S2000
G1 F2400 E5.29726
G0 F7500 X67.544 Y126.803
G0 X67.559 Y127.106
G0 X67.556 Y161.076
G0 X164.225 Y161.263
M204 S500
G1 F2400 E6.09726
G1 F1500 X164.419 Y161.148 E6.10777
G1 X164.53 Y160.984 E6.11699
G1 X164.533 Y59.014 E10.86514
G1 X164.393 Y58.767 E10.87836
G1 X164.225 Y58.683 E10.8871
G1 X55.763 Y58.675 E15.93755
G1 X55.568 Y58.79 E15.94809
G1 X55.457 Y58.954 E15.95731
G1 X55.453 Y160.924 E20.70546
G1 X55.595 Y161.17 E20.71869
G1 X55.762 Y161.256 E20.72743
G1 X164.225 Y161.263 E25.77793
M204 S2000
G0 F7500 X164.139 Y161.667
M204 S500
;TYPE:WALL-OUTER
G1 F1500 X164.388 Y161.626 E25.78968
G1 X164.722 Y161.414 E25.8081
G1 X164.902 Y161.148 E25.82305
G1 X164.93 Y160.943 E25.83269
G1 X164.933 Y58.952 E30.58182
G1 X164.859 Y58.719 E30.5932
G1 X164.632 Y58.422 E30.61061
G1 X164.307 Y58.283 E30.62707
G1 X55.889 Y58.278 E35.67546
G1 X55.848 Y58.271 E35.6774
G1 X55.6 Y58.312 E35.6891
G1 X55.309 Y58.459 E35.70428
G1 X55.085 Y58.79 E35.72289
G1 X55.057 Y58.995 E35.73253
G1 X55.053 Y160.986 E40.48166
G1 X55.128 Y161.22 E40.4931
G1 X55.355 Y161.516 E40.51047
G1 X55.68 Y161.656 E40.52695
G1 X164.098 Y161.66 E45.57534
G1 X164.139 Y161.667 E45.57728
M204 S2000
G1 F2400 E44.77728
G0 F7500 X164.197 Y161.142
G0 X82.816 Y161.077
G0 X82.359 Y106.669
G0 X82.508 Y105.959
M204 S500
G1 F2400 E45.57728
G1 F1500 X82.436 Y106.052 E45.58276
G1 X82.34 Y106.088 E45.58753
G1 X76.192 Y106.087 E45.87381
G1 X76.059 Y106.008 E45.88101
G1 X76.021 Y105.915 E45.88569
G1 X76.02 Y97.868 E46.26039
G1 X76.061 Y97.765 E46.26555
G1 X76.178 Y97.692 E46.27197
G1 X82.37 Y97.694 E46.5603
G1 X82.485 Y97.773 E46.5668
G1 X82.518 Y97.853 E46.57082
G1 X82.508 Y105.959 E46.94827
M204 S2000
G1 F2400 E46.14827
G0 F7500 X82.82 Y105.959
G0 X82.748 Y106.316
G0 X75.792 Y106.316
G0 X75.426 Y105.33
G0 X66.153 Y104.837
G0 X63.247 Y104.996
M204 S500
G1 F2400 E46.94827
G1 F1500 X63.173 Y104.873 E46.95496
G1 X63.174 Y98.601 E47.24701
G1 X63.216 Y98.51 E47.25168
G1 X63.317 Y98.437 E47.25748
G1 X65.41 Y98.441 E47.35494
G1 X65.491 Y98.477 E47.35907
G1 X65.57 Y98.61 E47.36627
G1 X65.568 Y104.877 E47.65809
G1 X65.49 Y105 E47.66487
G1 X65.396 Y105.037 E47.66957
G1 X63.336 Y105.036 E47.76549
G1 X63.247 Y104.996 E47.77004
M204 S2000
G1 F2400 E46.97004
G0 F7500 X63.247 Y105.338
G0 X62.943 Y105.266
G0 X62.943 Y98.21
G0 X65.472 Y97.857
G0 X64.97 Y95.459
G0 X65.368 Y94.767
M204 S500
G1 F2400 E47.77004
G1 F1500 X64.87 Y94.887 E47.79389
G1 X64.352 Y94.929 E47.81809
G1 X63.857 Y94.886 E47.84123
G1 X63.364 Y94.764 E47.86487
G1 X62.91 Y94.571 E47.88785
G1 X62.494 Y94.318 E47.91052
G1 X62.122 Y94.001 E47.93328
G1 X61.778 Y93.598 E47.95795
G1 X61.517 Y93.167 E47.98141
G1 X61.341 Y92.736 E48.00309
G1 X61.217 Y92.24 E48.02689
G1 X61.169 Y91.758 E48.04945
G1 X61.214 Y91.255 E48.07296
G1 X61.34 Y90.738 E48.09774
G1 X61.535 Y90.275 E48.12114
G1 X61.799 Y89.848 E48.14451
G1 X62.115 Y89.479 E48.16713
G1 X62.491 Y89.158 E48.19015
G1 X62.909 Y88.902 E48.21298
G1 X63.401 Y88.698 E48.23778
G1 X63.886 Y88.584 E48.26098
G1 X64.389 Y88.546 E48.28447
G1 X64.854 Y88.585 E48.3062
G1 X65.368 Y88.708 E48.33081
G1 X65.819 Y88.894 E48.35352
G1 X66.244 Y89.155 E48.37675
G1 X66.631 Y89.487 E48.40049
G1 X66.953 Y89.863 E48.42354
G1 X67.22 Y90.299 E48.44735
G1 X67.401 Y90.738 E48.46946
G1 X67.519 Y91.236 E48.49329
G1 X67.562 Y91.736 E48.51666
G1 X67.521 Y92.236 E48.54002
G1 X67.403 Y92.726 E48.56348
G1 X67.214 Y93.18 E48.58638
G1 X66.951 Y93.61 E48.60985
G1 X66.623 Y93.996 E48.63344
G1 X66.235 Y94.327 E48.65719
G1 X65.821 Y94.58 E48.67978
G1 X65.368 Y94.767 E48.7026
M204 S2000
G1 F2400 E47.9026
G0 F7500 X65.558 Y95.229
G0 X66.797 Y94.163
G0 X67.145 Y93.752
G0 X67.425 Y93.295
G0 X67.633 Y92.798
G0 X67.759 Y92.274
G0 X67.801 Y91.737
G0 X67.757 Y91.202
G0 X67.633 Y90.679
G0 X67.428 Y90.18
G0 X67.146 Y89.721
G0 X66.795 Y89.312
G0 X64.957 Y88.011
G0 X64.737 Y85.501
G0 X65.338 Y84.776
M204 S500
G1 F2400 E48.7026
G1 F1500 X64.851 Y84.889 E48.72588
G1 X64.352 Y84.929 E48.74919
G1 X63.858 Y84.886 E48.77228
G1 X63.364 Y84.764 E48.79597
G1 X62.91 Y84.571 E48.81894
G1 X62.494 Y84.318 E48.84162
G1 X62.111 Y83.99 E48.8651
G1 X61.778 Y83.598 E48.88905
G1 X61.517 Y83.167 E48.91251
G1 X61.341 Y82.736 E48.93419
G1 X61.217 Y82.24 E48.95799
G1 X61.169 Y81.758 E48.98055
G1 X61.214 Y81.255 E49.00406
G1 X61.34 Y80.738 E49.02884
G1 X61.535 Y80.275 E49.05224
G1 X61.799 Y79.848 E49.07561
G1 X62.125 Y79.47 E49.09885
G1 X62.505 Y79.149 E49.12202
G1 X62.936 Y78.889 E49.14546
G1 X63.401 Y78.698 E49.16886
G1 X63.871 Y78.586 E49.19136
G1 X64.386 Y78.546 E49.21541
G1 X64.872 Y78.587 E49.23812
G1 X65.354 Y78.703 E49.26121
G1 X65.818 Y78.894 E49.28457
G1 X66.243 Y79.155 E49.3078
G1 X66.63 Y79.486 E49.33151
G1 X66.955 Y79.866 E49.35479
G1 X67.218 Y80.296 E49.37826
G1 X67.407 Y80.756 E49.40142
G1 X67.521 Y81.251 E49.42507
G1 X67.561 Y81.755 E49.44862
G1 X67.522 Y82.231 E49.47085
G1 X67.397 Y82.741 E49.49531
G1 X67.211 Y83.185 E49.51772
G1 X66.952 Y83.609 E49.54086
G1 X66.622 Y83.997 E49.56457
G1 X66.249 Y84.318 E49.58749
G1 X65.821 Y84.58 E49.61086
G1 X65.338 Y84.776 E49.63513
M204 S2000
G1 F2400 E48.83513
G0 F7500 X65.457 Y85.262
G0 X64.371 Y85.514
G0 X64.364 Y116.009
G0 X67.045 Y126.86
M204 S500
G1 F2400 E49.63513
G1 F1500 X66.893 Y126.983 E49.64423
G1 X61.82 Y126.989 E49.88045
G1 X61.709 Y126.939 E49.88612
G1 X61.646 Y126.825 E49.89219
G1 X61.648 Y116.746 E50.36151
G1 X61.683 Y116.67 E50.3654
G1 X61.809 Y116.589 E50.37238
G1 X66.921 Y116.591 E50.61041
G1 X67.039 Y116.747 E50.61952
G1 X67.045 Y126.86 E51.09043
M204 S2000
G1 F2400 E50.29043
G0 F7500 X67.544 Y126.859
G0 X67.272 Y127.216
G0 X61.752 Y127.566
G0 X55.636 Y127.564
G0 X55.845 Y160.896
M204 S500
;TYPE:SKIN
G1 F2400 E51.09043
G1 F1500 X55.813 Y160.847 E51.09315
G1 X55.822 Y59.038 E55.8338
G1 X164.143 Y59.044 E60.87768
G1 X164.172 Y59.092 E60.8803
G1 X164.166 Y160.901 E65.62095
G1 X55.845 Y160.896 E70.66483
M204 S2000
G1 F2400 E69.86483
G0 F7500 X55.849 Y161.156
G0 X55.639 Y160.93
G0 X55.638 Y106.556
G0 X75.524 Y106.244
G0 X82.608 Y106.806
M204 S500
G1 F2400 E70.66483
G1 F1500 X82.973 Y106.594 E70.68448
G1 X83.148 Y106.377 E70.69746
G1 X83.274 Y105.995 E70.71619
G1 X83.277 Y97.754 E71.09993
G1 X83.11 Y97.339 E71.12076
G1 X82.822 Y97.068 E71.13917
G1 X82.495 Y96.928 E71.15574
G1 X76.158 Y96.929 E71.45081
G1 X75.743 Y97.053 E71.47098
G1 X75.442 Y97.295 E71.48897
G1 X75.26 Y97.713 E71.5102
G1 X75.267 Y106.012 E71.89663
G1 X75.372 Y106.337 E71.91254
G1 X75.526 Y106.551 E71.92481
G1 X75.847 Y106.776 E71.94307
G1 X76.154 Y106.847 E71.95774
G1 X82.372 Y106.848 E72.24727
G1 X82.608 Y106.806 E72.25844
M204 S2000
G1 F2400 E71.45844
G0 F7500 X82.521 Y106.56
G0 X75.792 Y106.316
G0 X75.587 Y97.406
G0 X66.592 Y84.786
G0 X65.569 Y85.503
M204 S500
G1 F2400 E72.25844
G1 F1500 X66.153 Y85.262 E72.28785
G1 X66.7 Y84.93 E72.31765
G1 X67.155 Y84.539 E72.34558
G1 X67.57 Y84.053 E72.37534
G1 X67.875 Y83.554 E72.40257
G1 X68.118 Y82.981 E72.43156
G1 X68.277 Y82.327 E72.4629
G1 X68.322 Y81.726 E72.49096
G1 X68.266 Y81.097 E72.52036
G1 X68.139 Y80.545 E72.54674
G1 X67.906 Y79.97 E72.57563
G1 X67.576 Y79.425 E72.60529
G1 X67.171 Y78.951 E72.63433
G1 X66.691 Y78.539 E72.66378
G1 X66.173 Y78.216 E72.69221
G1 X65.589 Y77.979 E72.72155
G1 X65.008 Y77.839 E72.74938
G1 X64.388 Y77.782 E72.77837
G1 X63.767 Y77.834 E72.80739
G1 X63.135 Y77.98 E72.83759
G1 X62.594 Y78.208 E72.86493
G1 X62.05 Y78.537 E72.89453
G1 X61.585 Y78.93 E72.92288
G1 X61.185 Y79.395 E72.95144
G1 X60.854 Y79.933 E72.98086
G1 X60.604 Y80.527 E73.01087
G1 X60.46 Y81.161 E73.04114
G1 X60.403 Y81.719 E73.06726
G1 X60.466 Y82.364 E73.09744
G1 X60.617 Y82.972 E73.12661
G1 X60.838 Y83.515 E73.1539
G1 X61.164 Y84.054 E73.18324
G1 X61.586 Y84.542 E73.21328
G1 X62.04 Y84.932 E73.24115
G1 X62.582 Y85.256 E73.27055
G1 X63.164 Y85.501 E73.29995
G1 X63.768 Y85.643 E73.32885
G1 X64.388 Y85.694 E73.35781
G1 X65.005 Y85.636 E73.38667
G1 X65.569 Y85.503 E73.41365
M204 S2000
G1 F2400 E72.61365
G0 F7500 X65.51 Y85.25
G0 X64.655 Y85.489
G0 X64.443 Y87.967
G0 X65.591 Y95.499
M204 S500
G1 F2400 E73.41365
G1 F1500 X66.151 Y95.264 E73.44193
G1 X66.704 Y94.929 E73.47204
G1 X67.171 Y94.524 E73.50082
G1 X67.58 Y94.044 E73.53019
G1 X67.893 Y93.525 E73.55841
G1 X68.125 Y92.962 E73.58676
G1 X68.271 Y92.354 E73.61588
G1 X68.323 Y91.755 E73.64387
G1 X68.268 Y91.11 E73.67402
G1 X68.129 Y90.507 E73.70283
G1 X67.896 Y89.952 E73.73086
G1 X67.573 Y89.423 E73.75972
G1 X67.175 Y88.952 E73.78843
G1 X66.69 Y88.536 E73.81819
G1 X66.183 Y88.227 E73.84583
G1 X65.608 Y87.986 E73.87487
G1 X64.974 Y87.833 E73.90523
G1 X64.389 Y87.781 E73.93258
G1 X63.768 Y87.831 E73.96159
G1 X63.165 Y87.973 E73.99044
G1 X62.583 Y88.215 E74.01979
G1 X62.041 Y88.544 E74.04931
G1 X61.586 Y88.932 E74.07716
G1 X61.185 Y89.393 E74.10561
G1 X60.84 Y89.959 E74.13647
G1 X60.604 Y90.529 E74.1652
G1 X60.46 Y91.161 E74.19538
G1 X60.403 Y91.719 E74.2215
G1 X60.466 Y92.365 E74.25172
G1 X60.617 Y92.971 E74.2808
G1 X60.839 Y93.519 E74.30833
G1 X61.161 Y94.047 E74.33713
G1 X61.604 Y94.558 E74.36862
G1 X62.043 Y94.93 E74.39542
G1 X62.558 Y95.247 E74.42358
G1 X63.123 Y95.488 E74.45218
G1 X63.737 Y95.638 E74.48161
G1 X64.391 Y95.693 E74.51217
G1 X65.009 Y95.635 E74.54107
G1 X65.591 Y95.499 E74.5689
M204 S2000
G1 F2400 E73.7689
G0 F7500 X65.512 Y95.248
G0 X64.97 Y95.459
G0 X64.967 Y97.857
G0 X65.928 Y105.62
M204 S500
G1 F2400 E74.5689
G1 F1500 X66.176 Y105.363 E74.58553
G1 X66.288 Y105.122 E74.59791
G1 X66.33 Y104.869 E74.60985
G1 X66.33 Y98.532 E74.90493
G1 X66.279 Y98.323 E74.91494
G1 X66.119 Y98.028 E74.93057
G1 X65.887 Y97.828 E74.94483
G1 X65.506 Y97.678 E74.9639
G1 X63.338 Y97.68 E75.06485
G1 X63.016 Y97.74 E75.0801
G1 X62.638 Y98.012 E75.10179
G1 X62.488 Y98.259 E75.11524
G1 X62.411 Y98.54 E75.12881
G1 X62.413 Y104.967 E75.42808
G1 X62.559 Y105.353 E75.4473
G1 X62.779 Y105.601 E75.46273
G1 X63.233 Y105.798 E75.48578
G1 X65.492 Y105.797 E75.59097
G1 X65.928 Y105.62 E75.61288
M204 S2000
G1 F2400 E74.81288
G0 F7500 X65.787 Y105.402
G0 X65.469 Y105.619
G0 X65.466 Y116.009
G0 X67.268 Y127.65
M204 S500
G1 F2400 E75.61288
G1 F1500 X67.517 Y127.474 E75.62708
G1 X67.711 Y127.2 E75.64271
G1 X67.805 Y126.912 E75.65681
G1 X67.799 Y116.702 E76.13224
G1 X67.739 Y116.444 E76.14457
G1 X67.595 Y116.192 E76.15808
G1 X67.297 Y115.944 E76.17614
G1 X66.938 Y115.831 E76.19366
G1 X61.662 Y115.835 E76.43933
G1 X61.327 Y115.981 E76.45635
G1 X61.074 Y116.215 E76.4724
G1 X60.884 Y116.619 E76.49319
G1 X60.886 Y126.924 E76.97303
G1 X60.974 Y127.204 E76.9867
G1 X61.198 Y127.501 E77.00402
G1 X61.444 Y127.661 E77.01768
G1 X61.73 Y127.744 E77.03155
G1 X66.906 Y127.747 E77.27257
G1 X67.268 Y127.65 E77.29002
M204 S2000
G1 F2400 E76.49002
G0 F7500 X67.167 Y127.411
G0 X61.752 Y127.566
G0 X61.749 Y161.076
G0 X56.609 Y160.695
M204 S500
G1 F2400 E77.29002
G1 F1500 X56.014 Y160.1 E77.3292
M204 S2000
G0 F7500 X56.014 Y159.534
M204 S500
